!!!Genre:	Skotshne
!!!Mode:	Freygish
!!!Listening/dance:	listening
!!!:	*C:; *c:dor
!!!One_Mode:	no
**kern
*I"P1
*clefG2
*k[b-e-a-]
*G:frey
*M2/4
*>A
=1
16bnLL
16ccJ
8ddJ
8ddL
8ddJ
=2
16ee-LL
16dd
16cc
16ee-JJ
8ddL
8ddJ
=3
16ccLL
16bn
16a-
16ccJJ
8bL
8bJ
=4
16a-LL
16g
16f
16a-JJ
8gL
8gJ
=5
16bnLL
16ccJ
8ddJ
8ddL
8ggJ
=6
16aa-LL
16gg
16ff
16ee-JJ
8ddL
8ccJ
=7
16bnLL
16cc
16dd
16ccJJ
8bL
8a-J
=8
(16a-LL
16gJ)
8gJ
8r
8g
=9:|!|:
*>B
16ccLL
16bn
16a-
16gJJ
8fL
8fJ
=10
8gL
8gJ
16a-LL
16g
16a-
16ccJJ
=11
8bnL
8bJ
16ccLL
16b
16cc
16ee-JJ
=12
4dd
4gg
=13
16aa-LL
16gg
16ff
16ee-JJ
16ffLL
16ee-
16dd
16ccJJ
=14
16ddLL
16cc
16bn
16a-JJ
16bLL
16a-
16g
16fJJ
=15
16enLL
16f
16g
16a-JJ
16bnLL
16cc
16b
16a-JJ
=16
(16a-LL
16gJ)
8gJ
8r
8g
=17:|!
16a-LL
16gJ
8gJ
16r
*>C
16gLL
16cc
16ddJJ
*>bM
*C:
=18!|:
*k[]
[4een
16eeLL]
16g
16cc
16ddJJ
=19
[4ee
16eeLL]
16g
16cc
16ddJJ
=20
16eeLL
16ff
16ff#X
16ggJJ
(16aaLL
16gg)
(16gg
16ff#JJ)
=21
2gg
*>eM
*>bM
*D:frey
=22
4.ff#X
16ee-XLL
16ddJJ
=23
4.aa
16ggLL
16ff#XJJ
=24
(16aaLL
16gg)
(16gg
16ff#XJJ)
(16ff#LL
16ee-X)
16dd
16ccJJ
=25
[4dd
16ddLL]
16g
16cc
16ddJJ
=26:|!
4.dd
*>eM
*G:frey
8b
==
*-
